symbols/web/explicit/materialsymbolsoutlined/explicit_wght600fill1_48px.svg

<svg xmlns="http://www.w3.org/2000/svg" height="48" width="48"><path d="M18.15 34.15H29.8v-3.3h-8.35v-5h8.35v-3.3h-8.35V17.5h8.35v-3.3H18.15Zm-8.9 8.55q-1.6 0-2.775-1.175Q5.3 40.35 5.3 38.75V9.25q0-1.65 1.175-2.825Q7.65 5.25 9.25 5.25h29.5q1.65 0 2.825 1.175Q42.75 7.6 42.75 9.25v29.5q0 1.6-1.175 2.775Q40.4 42.7 38.75 42.7Z"/></svg>

<svg xmlns="http://www.w3.org/2000/svg" height="48" width="48"><path d="M18.15 34.15H29.8V30.85H21.45V25.85H29.8V22.55H21.45V17.5H29.8V14.2H18.15ZM9.25 42.7Q7.65 42.7 6.475 41.525Q5.3 40.35 5.3 38.75V9.25Q5.3 7.6 6.475 6.425Q7.65 5.25 9.25 5.25H38.75Q40.4 5.25 41.575 6.425Q42.75 7.6 42.75 9.25V38.75Q42.75 40.35 41.575 41.525Q40.4 42.7 38.75 42.7Z"/></svg>
